!!!COM: Vivaldi, Antonio Lucio
!!!CDT: 1678/03/04-1741/08/28
!!!OPR: 12 sonatas for two violins and basso continuo
!!!OTL: Sonata in F major, op. @{OPS}, no. @{ONM} (@{SCT})
!!!OPS: 1
!!!ONM: 5
!!!OMV: 1. Preludio
!!!SCT: RV 69
!!!SCA: Antonio Vivaldi: Thematisch-systematisches Verzeichnis seiner Werke (Ryom-Verzeichnis)
!!!OMD: Largo
!!!key: F
**kern	**fb	**kern	**kern
*part3	*	*part2	*part1
*staff3	*	*staff2	*staff1
*ICstr&ICklav	*	*ICstr	*ICstr
*Icello&Icemba	*	*Ivioln	*Ivioln
*	*	*I#2	*I#1
*I"Violoncello\nContinuo	*	*I"Violin 2	*I"Violin 1
*I'bc	*	*I'v2	*I'v1
*clefF4	*	*clefG2	*clefG2
*k[b-]	*	*k[b-]	*k[b-]
*F:	*	*F:	*F:
*M4/4	*	*M4/4	*M4/4
*met(c)	*	*met(c)	*met(c)
*MM44	*	*MM44	*MM44
=1	=1	=1	=1
8F\L	.	2r	(8ff\L
16A\L	6	.	16.cc\L)
16F\JJ	.	.	.
.	.	.	32ff\JJk
8C/L	.	.	(8gg\L
16E/L	6	.	16.cc\L)
16C/JJ	.	.	.
.	.	.	32gg\JJk
8F\L	.	(8ff\L	8aa\L
16A\L	6	16.cc\L)	8ff\J
16F\JJ	.	.	.
.	.	32ff\JJk	.
8C/L	.	(8gg\L	4r
16E/L	6	16.cc\L)	.
16C/JJ	.	.	.
.	.	32gg\JJk	.
=2	=2	=2	=2
8F\L	.	8aa\L	4r
16A\L	6	8ff\J	.
16G\JJ	.	.	.
8A\L	.	(16cc\LL	8ff\L
.	.	16b-y\J)	.
8AA\J	.	8cc\J	8ff\J
8BB-y\L	.	8dd\L	(16ff\LL
.	.	.	16ee\J)
16d\L	6	8dd\J	8ff\J
16c\JJ	.	.	.
8Bn\L	6	(16dd\LL	8gg\L
.	.	16cc\J)	.
8BBn\J	.	8dd\J	8gg\J
=3	=3	=3	=3
8C\L	.	8ee\L	(16gg\LL
.	.	.	16ff\J)
16e\L	.	8ee\J	8gg\J
16d\JJ	.	.	.
8c#X\L	6	(16ee\LL	8aa\L
.	.	16dd\J)	.
8C#X\J	.	8ee\J	8aa\J
8D\L	.	8ff\L	(16aa\LL
.	.	.	16gg\J)
16f\L	.	8ff\J	8aa\J
16e\JJ	.	.	.
8d\L	6	(16ff\LL	8bb-y\L
.	.	16ee\J)	.
8D\J	.	8ff\J	8bb-y\J
!!LO:LB:g=original
=4	=4	=4	=4
8E\L	6	8gg\L	16cc\LL
.	.	.	16gg\
8F\	.	(16ff\L	16aa\
.	.	16gg\JJ)	16bb-y\JJ
8c\	.	4ee\	4gg\T
8C\J	.	.	.
8F\L	.	4ff\	4ff\
16A\L	6	.	.
16G\JJ	.	.	.
8A\L	.	8r	8r
8AA\J	.	16ff\LL	16aa\LL
.	.	16ee\JJ	16gg\JJ
=5	=5	=5	=5
8BB-y\L	.	8dd\L	8ff\L
16B-y\L	.	8dd\J	8ff\J
16A\JJ	.	.	.
8G/L	7	8dd\L	8ff\L
8GG/J	6	16ee\L	16gg\L
.	.	16dd\JJ	16ff\JJ
8AA\L	#	4cc#X\	8ee\L
16A\L	.	.	8ee\J
16G\JJ	.	.	.
8F\L	6	[4dd\	8aa\L
16E\L	.	.	16gg\L
16D\JJ	.	.	16ff\JJ
=6	=6	=6	=6
8G\L	6 5	4dd\]	16ee\LL
.	.	.	16aa\
8E\	.	.	16gg\
.	.	.	16ff\JJ
8A\	#	4cc#X\	4ee\t
8AA\J	.	.	.
8D\L	.	4dd\	4dd\
16F\L	6	.	.
16E\JJ	.	.	.
8F\L	.	8r	8r
8D\J	.	16dd\LL	16ff\LL
.	.	16ccn\JJ	16ee\JJ
=7	=7	=7	=7
8G\L	7 n	8bn\L	8dd\L
8C\	.	16cc\L	16ee\L
.	.	16dd\JJ	16ff\JJ
8G\	n	8.dd\L	8.bn\Lt
8GG\J	.	.	.
.	.	16cc\Jk	16cc\Jk
8C\L	.	4cc\	4cc\
16A\L	6	.	.
16B-y\JJ	.	.	.
8c\L	.	16r	16r
.	.	16ee\LL	16cc\LL
8B-y\J	.	16ff\	16dd\
.	.	16gg\JJ	16ee\JJ
!!LO:LB:g=original
=8	=8	=8	=8
8A\L	6	8cc\L	8ff\L
16c\L	-	8cc\	8ee-X\
16B-y\JJ	.	.	.
8A\L	6 5-r	8cc\	8ee-y\
8AA\J	.	8cc\J	8ee-y\J
8BB-y\L	5 4-r	4f/	(8ee-y\LT
16B-y\L	3	.	8dd\J)
16c\JJ	.	.	.
8d\L	6	16r	16r
.	.	16ff\LL	16dd\LL
8c\J	.	16gg\	16een\
.	.	16aa\JJ	16ff\JJ
=9	=9	=9	=9
8Bn\L	6	8dd\L	8gg\L
16d\L	6nr	8dd\	8ff\
16c\JJ	.	.	.
8Bn\L	6 5	8dd\	8ff\
8BBn\J	.	8dd\J	8ff\J
8C\L	5 4	4g/	(8ff\LT
16c\L	3	.	8ee\J)
16B-X\JJ	.	.	.
8A\L	6	4r	4r
8G\J	6	.	.
=10	=10	=10	=10
8F\L	.	2r	(8ff\L
16A\L	6	.	16.cc\L)
16F\JJ	.	.	.
.	.	.	32ff\JJk
8C/L	.	.	(8gg\L
16E/L	6	.	16.cc\L)
16C/JJ	.	.	.
.	.	.	32gg\JJk
8F\L	.	(8ff\L	8aa\L
16A\L	6	16.cc\L)	8ff\J
16F\JJ	.	.	.
.	.	32ff\JJk	.
8C/L	.	(8gg\L	4r
16E/L	6	16.cc\L)	.
16C/JJ	.	.	.
.	.	32gg\JJk	.
!!LO:LB:g=original
=11	=11	=11	=11
8F\L	.	8aa\L	4r
16A\L	6	8ff\J	.
16G\JJ	.	.	.
8A\L	.	(16cc\LL	8ff\L
.	.	16b-y\J)	.
8AA\J	.	8cc\J	8ff\J
8BB-y\L	.	8dd\L	(16ff\LL
.	.	.	16ee\J)
16d\L	6	8dd\J	8ff\J
16c\JJ	.	.	.
8Bn\L	6	(16dd\LL	8gg\L
.	.	16cc\J)	.
8BBn\J	.	8dd\J	8gg\J
=12	=12	=12	=12
8C\L	.	8ee\L	(16gg\LL
.	.	.	16ff\J)
16e\L	.	8ee\J	8gg\J
16d\JJ	.	.	.
8c#X\L	6	(16ee\LL	8aa\L
.	.	16dd\J)	.
8C#X\J	.	8ee\J	8aa\J
8D\L	.	8ff\L	(16aa\LL
.	.	.	16gg\J)
16f\L	.	8ff\J	8aa\J
16e\JJ	.	.	.
8d\L	6	(16ff\LL	8bb-y\L
.	.	16ee\J)	.
8D\J	.	8ff\J	8bb-y\J
=13	=13	=13	=13
8C\L	.	8gg\L	16cc\LL
.	.	.	16gg\
8F\	.	16ff\L	16aa\
.	.	16gg\JJ	16bb-y\JJ
8c\	.	4ee\	4gg\T
8C\J	.	.	.
8F\L	.	4ff\	4ff\
16A\L	6	.	.
16G\JJ	.	.	.
8A\L	.	8r	8r
8F\J	.	16f/LL	16dd\LL
.	.	16e/JJ	16cc\JJ
=14	=14	=14	=14
8G\L	7	16d/LL	8b-y/L
.	.	16e/JJ	.
16A\L	6	4f/	8a/J
16B-y\JJ	.	.	.
8c\L	5 4	.	4g/T
8C\J	3	8e/	.
2FF/;	.	2f/;	2f/;
==	==	==	==
*-	*-	*-	*-
!!!SMS: RV 69 / Estienne Roger (No. 363), Amsterdam [facs.]
!!!ENC: Fran Bennion   rev. 05/12/21 E Correia
!!!END: 2004/10/04
!!!ONB: Converted from MuseData with musedata2hum on Sat May 11 12:01:54 2024
!!!YEM: (C) 2004, 2019 Center for Computer Assisted Research in the Humanities
!!!system-decoration: [(s1,s2,s3)]
!!!URL-info: https://wiki.ccarh.org/wiki/MuseData:_Antonio_Vivaldi#Op._1:_Suonate_da_camera_a_tr.C3.A8.2C_due_violini_e_violone_o_cembalo Information about Vivaldi Op. 1 on the CCARH wiki
!!!URL-pdf: https://pdf.musedata.org/vivaldi-op01-no05.pdf#page=1 MuseData edition
!!!URL-pdf: https://s9.imslp.org/files/imglnks/usimg/1/18/IMSLP280399-PMLP10351-Vivaldi_Sonatas_Op_1_-_Violino_Primo.pdf#page=8 Violino primo part, Amsterdam: Estienne Roger, n.d.(ca.1723). Plate 363.
!!!URL-pdf: https://s9.imslp.org/files/imglnks/usimg/d/d5/IMSLP280400-PMLP10351-Vivaldi_Sonatas_Op_1_-_Violino_Secondo.pdf#page=7 Violino secondo part, Amsterdam: Estienne Roger, n.d.(ca.1723). Plate 363.
!!!URL-pdf: https://s9.imslp.org/files/imglnks/usimg/8/89/IMSLP280401-PMLP10351-Vivaldi_Sonatas_Op_1_-_Organo_e_Violoncello.pdf#page=7 Organo e Violoncello parts, Amsterdam: Estienne Roger, n.d.(ca.1723). Plate 363.
!!!URL-youtube: https://www.youtube.com/watch?v=P5HHPe_W6Uo&t=995s L'Arte dell'Arco
!!!title: @{OTL}, mov. @{OMV}
!!!filter-vcross: vcross
!!!mei: scoreDef@tempo.dist="5"
!!!EEV: 2024/05/11
!!!source-file: https://bitbucket.org/musedata/vivaldi/src/master/roger/op1/no05/stage2/01/01
!!!source-file: https://bitbucket.org/musedata/vivaldi/src/master/roger/op1/no05/stage2/01/02
!!!source-file: https://bitbucket.org/musedata/vivaldi/src/master/roger/op1/no05/stage2/01/03
!!!source-file: https://bitbucket.org/musedata/vivaldi/src/master/roger/op1/no05/stage2/01/04
